static/images/mobile/copyright/wikipedia-wordmark-an.svg

<?xml version="1.0" encoding="UTF-8"?>
<svg width="121px" height="24px" viewBox="0 0 121 24" version="1.1" xmlns="http://www.w3.org/2000/svg" xmlns:xlink="http://www.w3.org/1999/xlink">
    <title>an-wordmark</title>
    <g id="Page-1" stroke="none" stroke-width="1" fill="none" fill-rule="evenodd">
        <path d="M4.90004767,3.11349175 C4.90004767,2.21118582 4.90004767,1.93775978 7.27885422,1.93775978 C8.81003802,1.93775978 10.8607353,2.7306953 10.8607353,5.5196409 C10.8607353,7.84376224 9.19283447,8.66404036 6.92340037,8.66404036 L4.90004767,8.66404036 L4.90004767,3.11349175 M4.90004767,9.59368889 L7.33353943,9.59368889 C10.5326211,9.59368889 12.1458377,11.6990694 12.1458377,14.1599038 C12.1458377,16.1559138 11.3255556,17.7964701 7.1694838,17.7964701 C5.25550355,17.7964701 4.90004767,17.4410162 4.90004767,16.5387103 L4.90004767,9.59368889 M0.251805,18.1519239 L0.251805,18.6714334 L0.306490208,18.7261186 C0.306490208,18.7261186 2.41187173,18.6714334 3.77900091,18.6714334 C5.31018471,18.6714334 5.25550355,18.7261186 7.68899328,18.7261186 C13.1301664,18.7261186 14.5793295,15.9918582 14.5793295,13.6403943 C14.5793295,11.0155043 12.8020582,9.51166108 10.4232537,8.82809598 C11.8177255,8.14453088 12.9661158,6.69537287 12.9661158,5.19152965 C12.9661158,3.35957519 12.1731753,1.00811125 7.08745599,1.00811125 C6.13046587,1.00811125 5.06410229,1.03545385 3.77900091,1.03545385 C2.41187173,1.03545385 0.306490208,1.00811125 0.306490208,1.00811125 L0.251805,1.03545385 L0.251805,1.58230593 C0.251805,1.69167635 0.306490208,1.77370416 0.443203228,1.77370416 L1.26348135,1.82838937 C2.4392123,1.91041718 2.68529675,2.0471302 2.68529675,2.97677873 L2.68529675,16.7301085 C2.68529675,17.6870997 2.4118697,17.7964701 1.26348135,17.8784979 L0.443203228,17.9331831 C0.306490309,17.9331831 0.251805,18.0152109 0.251805,18.1519239 M19.7854058,7.73439182 C19.7854058,7.18753974 20.0861745,6.96879891 20.9337952,6.8867711 L21.5079899,6.83208589 C21.6173593,6.83208589 21.6720455,6.77740068 21.6720455,6.69537287 L21.6720455,6.09383559 L21.6447029,6.03915038 C21.6447029,6.03915038 19.5393214,6.09383559 18.8010721,6.09383559 C17.9534514,6.09383559 15.7933857,6.03915038 15.7933857,6.03915038 L15.766043,6.09383559 L15.766043,6.72271548 C15.766043,6.80474329 15.8480709,6.83208589 15.9574413,6.83208589 L16.5042934,6.8867711 C17.3519131,6.96879891 17.6800253,7.13285454 17.6800253,7.73439182 L17.6800253,16.8394789 C17.6800253,17.3589884 17.4065983,17.7964701 16.5042934,17.8784979 L15.9574413,17.9331831 C15.8480709,17.9331831 15.766043,17.9878683 15.766043,18.0972387 L15.766043,18.6714334 L15.8207283,18.7261186 C15.8207283,18.7261186 17.9534514,18.6714334 18.7190443,18.6714334 C19.566664,18.6714334 21.6447029,18.7261186 21.6447029,18.7261186 L21.6720455,18.6714334 L21.6720455,18.0972387 C21.6720455,17.9878683 21.5900177,17.9331831 21.5079899,17.9331831 L20.9337952,17.8784979 C20.0588319,17.7964701 19.7854058,17.4410162 19.7854058,16.8394789 L19.7854058,7.73439182 M29.1001348,6.66803027 C31.5336245,6.66803027 33.639007,8.964809 33.639007,12.6287179 C33.639007,15.9918582 31.9711062,18.0698961 29.5376164,18.0698961 C26.8853869,18.0698961 24.9987442,15.6364044 24.9987442,12.2732641 C24.9987442,8.58201255 27.0494415,6.66803027 29.1001348,6.66803027 M25.080772,21.8978607 L25.9283927,22.3079997 C26.3658744,21.2963234 27.2134951,21.0228974 27.5416063,21.0228974 C29.564957,21.0228974 30.7953793,23.1282779 33.6116644,23.1282779 C35.0061362,23.1282779 35.9357868,22.5540832 36.7834065,21.323666 L36.40061,21.05024 C35.9357858,21.6244346 35.1428492,21.8431755 34.5139704,21.8431755 C32.5726475,21.8431755 30.9867724,20.0659062 28.5532827,20.0659062 C28.4712549,20.0659062 28.3618845,20.0659062 28.2525141,20.0932488 C29.154819,19.4917115 30.0571269,19.0815725 30.7680336,18.835489 C34.1585135,18.1519239 35.9084432,15.3356357 35.9084432,12.2459215 C35.9084432,8.36327171 32.9007527,5.71103913 29.3462182,5.71103913 C25.5456003,5.71103913 22.729308,8.58201255 22.729308,12.6013753 C22.729308,16.1285712 25.1628028,18.698776 28.5532827,18.9722021 C27.0767831,19.7924802 25.7643361,20.9408695 25.080772,21.8978607 M43.5932957,18.9448594 C47.9954509,18.9448594 48.9251035,16.3473121 48.9251035,12.5466901 L48.9251035,7.73439182 C48.9251035,7.18753974 49.1438453,6.99614152 49.991465,6.8867711 L50.4562893,6.83208589 C50.5656597,6.83208589 50.6203449,6.77740068 50.6203449,6.69537287 L50.6203449,6.09383559 L50.5656597,6.03915038 C50.5656597,6.03915038 49.0618165,6.09383559 48.2962236,6.09383559 C47.4759465,6.09383559 45.8353892,6.03915038 45.8353892,6.03915038 L45.780704,6.09383559 L45.780704,6.69537287 C45.780704,6.77740068 45.8627318,6.83208589 45.9721022,6.83208589 L46.5189543,6.8867711 C47.3392324,6.96879891 47.6946863,7.13285454 47.6946863,7.73439182 L47.6946863,12.902144 C47.6946863,15.2536079 47.6673437,18.1519239 44.05812,18.1519239 C41.1324644,18.1519239 40.7496649,15.6910896 40.7496649,13.1482274 L40.7496649,7.73439182 C40.7496649,7.18753974 41.0504345,6.96879891 41.9253968,6.8867711 L42.4722489,6.83208589 C42.5816193,6.83208589 42.6363045,6.77740068 42.6363045,6.69537287 L42.6363045,6.09383559 L42.5816193,6.03915038 C42.5816193,6.03915038 40.530924,6.09383559 39.7653311,6.09383559 C38.9177114,6.09383559 36.8670151,6.03915038 36.8670151,6.03915038 L36.8123299,6.09383559 L36.8123299,6.69537287 C36.8123299,6.77740068 36.8943577,6.83208589 36.9763855,6.83208589 L37.4685524,6.8867711 C38.3435147,6.99614152 38.6442844,7.13285454 38.6442844,7.73439182 L38.6442844,13.7224221 C38.6442844,17.6870997 41.706658,18.9448594 43.5932957,18.9448594 M55.4316629,7.73439182 C55.4316629,7.18753974 55.7324326,6.96879891 56.5800523,6.8867711 L57.154247,6.83208589 C57.2636174,6.83208589 57.3183026,6.77740068 57.3183026,6.69537287 L57.3183026,6.09383559 L57.29096,6.03915038 C57.29096,6.03915038 55.1855795,6.09383559 54.4473292,6.09383559 C53.5997095,6.09383559 51.4396427,6.03915038 51.4396427,6.03915038 L51.4123001,6.09383559 L51.4123001,6.72271548 C51.4123001,6.80474329 51.4943279,6.83208589 51.6036984,6.83208589 L52.1505504,6.8867711 C52.9981712,6.96879891 53.3262824,7.13285454 53.3262824,7.73439182 L53.3262824,16.8394789 C53.3262824,17.3589884 53.0528554,17.7964701 52.1505504,17.8784979 L51.6036984,17.9331831 C51.4943279,17.9331831 51.4123001,17.9878683 51.4123001,18.0972387 L51.4123001,18.6714334 L51.4669853,18.7261186 C51.4669853,18.7261186 53.5997095,18.6714334 54.3653014,18.6714334 C55.2129221,18.6714334 57.29096,18.7261186 57.29096,18.7261186 L57.3183026,18.6714334 L57.3183026,18.0972387 C57.3183026,17.9878683 57.2362748,17.9331831 57.154247,17.9331831 L56.5800523,17.8784979 C55.70509,17.7964701 55.4316629,17.4410162 55.4316629,16.8394789 L55.4316629,7.73439182 M62.2035317,7.78907703 C62.2035317,7.07816933 62.531644,6.83208589 63.844088,6.83208589 C65.3479291,6.83208589 66.4142927,7.35159537 66.4142927,9.70305931 C66.4142927,11.8084398 65.6213552,12.7927736 63.980801,12.7927736 C63.4339489,12.7927736 62.7503828,12.765431 62.2035317,12.5466901 L62.2035317,7.78907703 M60.0981512,16.976192 C60.0981512,17.4957014 59.8247242,17.7417849 58.9771044,17.8511553 L58.4029098,17.9331831 C58.2935393,17.9605257 58.2388541,17.9878683 58.2388541,18.0972387 L58.2388541,18.6714334 L58.2661967,18.7261186 C58.2661967,18.7261186 60.3168931,18.6714334 61.082485,18.6714334 C61.9301047,18.6714334 64.117514,18.7261186 64.117514,18.7261186 L64.1448566,18.6714334 L64.1448566,18.0972387 C64.1448566,17.9878683 64.0628288,17.9605257 63.9534584,17.9331831 L63.4066063,17.8511553 C62.531644,17.7144423 62.2035317,17.5777293 62.2035317,16.976192 L62.2035317,13.312283 C62.6956976,13.5310239 63.2425507,13.5857091 63.9261158,13.5857091 C67.8087615,13.5857091 68.601701,11.0155043 68.601701,9.37494806 C68.601701,7.95313266 67.8907893,6.03915038 64.0081436,6.03915038 C62.9964682,6.03915038 61.9027621,6.09383559 61.1371702,6.09383559 C60.3442357,6.09383559 58.73102,6.03915038 58.320882,6.03915038 L58.2661967,6.06649298 L58.2661967,6.69537287 C58.2661967,6.75005808 58.2935393,6.83208589 58.457595,6.83208589 C59.7426953,6.9141137 60.0981512,6.94145631 60.0981512,7.78907703 L60.0981512,16.976192 M76.856901,18.6714334 C77.6771792,18.6714334 79.2903928,18.7261186 79.2903928,18.7261186 L79.345078,18.6714334 L79.8919301,15.527034 L79.208365,15.4450061 C78.8802548,16.8668215 78.1146598,17.7417849 76.720188,17.7417849 L74.1226406,17.7417849 C73.6304748,17.7417849 73.3297051,17.2222754 73.3297051,16.7027659 L73.3297051,12.5193475 L75.3804004,12.5193475 C76.0913081,12.5193475 76.3373916,12.8201162 76.446762,13.3669682 L76.583475,13.9685055 C76.583475,14.0505333 76.6381602,14.1052185 76.7748732,14.1052185 L77.2396975,14.1052185 L77.2943827,14.0505333 C77.2396975,13.4216534 77.1303271,12.8474588 77.1303271,12.1638937 C77.1303271,11.5076712 77.2396975,10.7420783 77.2943827,10.140541 C77.2943827,10.0858558 77.2943827,10.0585132 77.2396975,10.0585132 L76.7748732,10.0585132 C76.6655028,10.0585132 76.6108176,10.1131984 76.6108176,10.1952262 L76.446762,10.7694209 C76.3373916,11.3162729 76.1459933,11.6443842 75.3804004,11.6443842 L73.3297051,11.6443842 L73.3297051,7.67970662 C73.3297051,7.21488235 73.6031322,7.02348412 74.1226406,7.02348412 L76.310049,7.02348412 C78.0599746,7.02348412 78.5794861,8.47264213 78.8802537,9.48431848 L79.5638188,9.37494806 C79.3724216,8.33592911 79.1810224,7.26956756 79.1536798,6.09383559 L79.0989946,6.03915038 C79.0989946,6.03915038 77.1576697,6.09383559 76.3373916,6.09383559 L72.3180288,6.09383559 C71.4977517,6.09383559 69.3650276,6.03915038 69.3650276,6.03915038 L69.337685,6.09383559 L69.337685,6.72271548 C69.337685,6.75005808 69.337685,6.80474329 69.5017406,6.83208589 L70.1306205,6.8867711 C70.8962134,6.94145631 71.2243246,7.05082672 71.2243246,7.67970662 L71.2243246,16.7027659 C71.2243246,17.249618 70.9782402,17.7964701 70.1306205,17.8784979 L69.5017406,17.9331831 C69.3650276,17.9331831 69.337685,18.0152109 69.337685,18.0698961 L69.337685,18.6714334 L69.3650276,18.7261186 C69.3650276,18.7261186 71.2516682,18.6714334 72.0719454,18.6714334 L76.856901,18.6714334 M80.9171562,18.0972387 L80.9171562,18.6714334 L80.9444988,18.7261186 C80.9444988,18.7261186 83.0225377,18.6714334 83.8428148,18.6714334 C84.6904345,18.6714334 85.6474287,18.7261186 87.834835,18.7261186 C90.869861,18.7261186 94.260351,17.3043032 94.260351,12.5193475 C94.260351,8.88278119 92.0182484,6.03915038 87.4520386,6.03915038 C86.7411319,6.03915038 84.3623233,6.09383559 83.8428148,6.09383559 C83.350648,6.09383559 80.9444988,6.03915038 80.9444988,6.03915038 L80.9171562,6.09383559 L80.9171562,6.69537287 C80.9171562,6.77740068 80.999184,6.83208589 81.1085544,6.83208589 L81.7100917,6.8867711 C82.6123966,6.96879891 82.8037959,6.96879891 82.8037959,7.67970662 L82.8037959,16.7027659 C82.8037959,17.5503866 82.5303688,17.7964701 81.7100917,17.8784979 L81.0812118,17.9331831 C80.9718414,17.9331831 80.9171562,18.0152109 80.9171562,18.0972387 M84.9091764,16.7027659 L84.9091764,7.67970662 C84.9091764,6.99614152 85.5927425,6.83208589 86.659103,6.83208589 C91.2526554,6.83208589 91.8815404,10.140541 91.8815404,12.9841718 C91.8815404,16.8121363 90.1862959,17.9331831 87.1786125,17.9331831 C85.1005766,17.9331831 84.9091764,17.4683588 84.9091764,16.7027659 M98.7441127,7.73439182 C98.7441127,7.18753974 99.0448814,6.96879891 99.8925021,6.8867711 L100.466697,6.83208589 C100.576067,6.83208589 100.630752,6.77740068 100.630752,6.69537287 L100.630752,6.09383559 L100.60341,6.03915038 C100.60341,6.03915038 98.4980293,6.09383559 97.7597688,6.09383559 C96.9121481,6.09383559 94.7520925,6.03915038 94.7520925,6.03915038 L94.7247499,6.09383559 L94.7247499,6.72271548 C94.7247499,6.80474329 94.8067777,6.83208589 94.9161482,6.83208589 L95.4630002,6.8867711 C96.3106311,6.96879891 96.6387423,7.13285454 96.6387423,7.73439182 L96.6387423,16.8394789 C96.6387423,17.3589884 96.3653163,17.7964701 95.4630002,17.8784979 L94.9161482,17.9331831 C94.8067777,17.9331831 94.7247499,17.9878683 94.7247499,18.0972387 L94.7247499,18.6714334 L94.7794351,18.7261186 C94.7794351,18.7261186 96.9121481,18.6714334 97.677741,18.6714334 C98.5253719,18.6714334 100.6034,18.7261186 100.6034,18.7261186 L100.630752,18.6714334 L100.630752,18.0972387 C100.630752,17.9878683 100.548714,17.9331831 100.466687,17.9331831 L99.892492,17.8784979 C99.0175286,17.7964701 98.7441026,17.4410162 98.7441026,16.8394789 L98.7441026,7.73439182 M108.576513,10.9334765 C107.974976,10.9334765 107.783578,10.8514487 107.892948,10.5780226 L110.627208,3.63300123 L110.681894,3.63300123 L113.334126,10.9334765 L108.576513,10.9334765 M105.541484,16.5113677 L107.127355,12.5466901 C107.264068,12.1912363 107.428124,12.0818659 108.084346,12.0818659 L113.771608,12.0818659 L115.439507,16.7027659 C115.712933,17.4683588 115.330136,17.7964701 114.291117,17.8784979 L113.525524,17.9331831 C113.388811,17.9331831 113.334126,18.0152109 113.334126,18.1519239 L113.334126,18.6714334 L113.361469,18.7261186 C113.361469,18.7261186 116.041044,18.6714334 116.998035,18.6714334 C118.064397,18.6714334 120.169777,18.7261186 120.169777,18.7261186 L120.251805,18.6714334 L120.251805,18.1519239 C120.251805,18.0152109 120.115092,17.9331831 119.978379,17.9331831 L119.67761,17.9058405 C118.583906,17.7964701 118.037054,17.386331 117.654258,16.3199695 L112.049024,1.50027812 C111.830283,0.95342604 111.69357,0.68 111.310774,0.68 C110.900634,0.68 110.681894,0.95342604 110.381125,1.66433374 L104.311067,15.8824878 C103.545474,17.6324145 102.861909,17.8511553 101.658834,17.9331831 C101.522121,17.9331831 101.440093,18.0152109 101.440093,18.1519239 L101.440093,18.6714334 L101.494779,18.7261186 C101.494779,18.7261186 103.244705,18.6714334 103.955613,18.6714334 C104.611836,18.6714334 107.592179,18.7261186 107.592179,18.7261186 L107.646865,18.6714334 L107.646865,18.1519239 C107.646865,18.0152109 107.537494,17.9331831 107.428124,17.9331831 L106.635188,17.8784979 C105.623512,17.7964701 105.268058,17.1949328 105.541484,16.5113677" id="an-wordmark" fill="#000000" fill-rule="nonzero"></path>
    </g>
</svg>

<svg xmlns="http://www.w3.org/2000/svg" width="121" height="24"><path fill="#000" fill-rule="nonzero" d="M4.9 3.113c0-.902 0-1.175 2.379-1.175 1.531 0 3.582.793 3.582 3.582 0 2.324-1.668 3.144-3.938 3.144H4.9v-5.55m0 6.48h2.434c3.199 0 4.812 2.105 4.812 4.566 0 1.996-.82 3.636-4.977 3.636-1.913 0-2.269-.355-2.269-1.257V9.594M.252 18.152v.52l.054.054s2.106-.055 3.473-.055c1.531 0 1.477.055 3.91.055 5.441 0 6.89-2.734 6.89-5.086 0-2.624-1.777-4.128-4.156-4.812 1.395-.683 2.543-2.133 2.543-3.636 0-1.832-.793-4.184-5.879-4.184-.957 0-2.023.027-3.308.027-1.367 0-3.473-.027-3.473-.027l-.054.027v.547c0 .11.054.192.191.192l.82.054c1.176.082 1.422.22 1.422 1.149V16.73c0 .957-.273 1.066-1.422 1.148l-.82.055c-.137 0-.191.082-.191.219M19.785 7.734c0-.546.301-.765 1.149-.847l.574-.055c.11 0 .164-.055.164-.137v-.601l-.027-.055s-2.106.055-2.844.055c-.848 0-3.008-.055-3.008-.055l-.027.055v.629c0 .082.082.11.191.11l.547.054c.848.082 1.176.246 1.176.847v9.105c0 .52-.273.957-1.176 1.04l-.547.054c-.109 0-.191.055-.191.164v.574l.055.055s2.132-.055 2.898-.055c.848 0 2.926.055 2.926.055l.027-.055v-.574c0-.11-.082-.164-.164-.164l-.574-.055c-.875-.082-1.149-.437-1.149-1.039V7.734M29.1 6.668c2.434 0 4.539 2.297 4.539 5.96 0 3.364-1.668 5.442-4.101 5.442-2.653 0-4.54-2.434-4.54-5.797 0-3.691 2.051-5.605 4.102-5.605m-4.02 15.23.848.41c.438-1.012 1.285-1.285 1.614-1.285 2.023 0 3.253 2.105 6.07 2.105 1.394 0 2.324-.574 3.171-1.804l-.382-.274c-.465.574-1.258.793-1.887.793-1.941 0-3.527-1.777-5.96-1.777-.083 0-.192 0-.301.027a11.305 11.305 0 0 1 2.515-1.258c3.39-.683 5.14-3.5 5.14-6.59 0-3.882-3.007-6.534-6.562-6.534-3.8 0-6.617 2.871-6.617 6.89 0 3.528 2.434 6.098 5.824 6.371-1.476.82-2.789 1.969-3.472 2.926m18.512-2.953c4.402 0 5.332-2.598 5.332-6.398V7.734c0-.546.219-.738 1.066-.847l.465-.055c.11 0 .164-.055.164-.137v-.601l-.054-.055s-1.504.055-2.27.055c-.82 0-2.46-.055-2.46-.055l-.055.055v.601c0 .082.082.137.191.137l.547.055c.82.082 1.176.246 1.176.847v5.168c0 2.352-.028 5.25-3.637 5.25-2.926 0-3.308-2.46-3.308-5.004V7.734c0-.546.3-.765 1.175-.847l.547-.055c.11 0 .164-.055.164-.137v-.601l-.054-.055s-2.051.055-2.817.055c-.847 0-2.898-.055-2.898-.055l-.055.055v.601c0 .082.082.137.164.137l.493.055c.875.11 1.175.246 1.175.847v5.988c0 3.965 3.063 5.223 4.95 5.223m11.838-11.21c0-.547.3-.766 1.148-.848l.574-.055c.11 0 .164-.055.164-.137v-.601l-.027-.055s-2.105.055-2.844.055c-.847 0-3.007-.055-3.007-.055l-.028.055v.629c0 .082.082.11.192.11l.547.054c.847.082 1.175.246 1.175.847v9.105c0 .52-.273.957-1.175 1.04l-.547.054c-.11 0-.192.055-.192.164v.574l.055.055s2.133-.055 2.898-.055c.848 0 2.926.055 2.926.055l.027-.055v-.574c0-.11-.082-.164-.164-.164l-.574-.055c-.875-.082-1.148-.437-1.148-1.039V7.734m6.772.055c0-.71.328-.957 1.64-.957 1.504 0 2.57.52 2.57 2.871 0 2.105-.793 3.09-2.433 3.09-.547 0-1.23-.028-1.777-.246V7.789m-2.106 9.187c0 .52-.273.766-1.12.875l-.575.082c-.11.028-.164.055-.164.164v.574l.027.055s2.05-.055 2.816-.055c.848 0 3.036.055 3.036.055l.027-.055v-.574c0-.11-.082-.136-.192-.164l-.546-.082c-.875-.137-1.203-.273-1.203-.875v-3.664c.492.219 1.039.274 1.722.274 3.883 0 4.676-2.57 4.676-4.211 0-1.422-.711-3.336-4.594-3.336-1.012 0-2.105.055-2.87.055-.794 0-2.407-.055-2.817-.055l-.055.027v.63c0 .054.028.136.192.136 1.285.082 1.64.11 1.64.957v9.187m16.759 1.695c.82 0 2.433.055 2.433.055l.055-.055.547-3.144-.684-.082c-.328 1.422-1.093 2.297-2.488 2.297h-2.597c-.493 0-.793-.52-.793-1.04V12.52h2.05c.711 0 .957.301 1.067.848l.136.602c0 .082.055.136.192.136h.465l.054-.054c-.054-.63-.164-1.204-.164-1.887 0-.656.11-1.422.164-2.023 0-.055 0-.082-.054-.082h-.465c-.11 0-.164.054-.164.136l-.164.574c-.11.547-.301.875-1.067.875h-2.05V7.68c0-.465.273-.657.793-.657h2.187c1.75 0 2.27 1.45 2.57 2.461l.684-.11c-.192-1.038-.383-2.104-.41-3.28l-.055-.055s-1.941.055-2.762.055h-4.019c-.82 0-2.953-.055-2.953-.055l-.027.055v.629c0 .027 0 .082.164.11l.629.054c.765.054 1.093.164 1.093.793v9.023c0 .547-.246 1.093-1.093 1.175l-.63.055c-.136 0-.163.082-.163.137v.601l.027.055s1.887-.055 2.707-.055h4.785m4.06-.574v.574l.027.055s2.079-.055 2.899-.055c.847 0 1.804.055 3.992.055 3.035 0 6.425-1.422 6.425-6.207 0-3.636-2.242-6.48-6.808-6.48-.71 0-3.09.055-3.61.055-.491 0-2.898-.055-2.898-.055l-.027.055v.601c0 .082.082.137.192.137l.601.055c.902.082 1.094.082 1.094.793v9.023c0 .847-.274 1.093-1.094 1.175l-.629.055c-.11 0-.164.082-.164.164m3.992-1.394V7.68c0-.684.684-.848 1.75-.848 4.594 0 5.223 3.309 5.223 6.152 0 3.828-1.696 4.95-4.703 4.95-2.078 0-2.27-.466-2.27-1.231m13.835-8.969c0-.546.3-.765 1.149-.847l.574-.055c.11 0 .164-.055.164-.137v-.601l-.028-.055s-2.105.055-2.843.055c-.848 0-3.008-.055-3.008-.055l-.027.055v.629c0 .082.082.11.191.11l.547.054c.848.082 1.176.246 1.176.847v9.105c0 .52-.274.957-1.176 1.04l-.547.054c-.11 0-.191.055-.191.164v.574l.054.055s2.133-.055 2.899-.055c.847 0 2.925.055 2.925.055l.028-.055v-.574c0-.11-.082-.164-.164-.164l-.575-.055c-.874-.082-1.148-.437-1.148-1.039V7.734m9.833 3.2c-.602 0-.793-.083-.684-.356l2.734-6.945h.055l2.652 7.3h-4.757m-3.036 5.578 1.586-3.964c.137-.356.301-.465.957-.465h5.688l1.668 4.62c.273.766-.11 1.094-1.149 1.176l-.765.055c-.137 0-.192.082-.192.219v.52l.027.054s2.68-.055 3.637-.055c1.066 0 3.172.055 3.172.055l.082-.055v-.52c0-.136-.137-.218-.274-.218l-.3-.027c-1.094-.11-1.64-.52-2.024-1.586L112.05 1.5c-.219-.547-.355-.82-.738-.82-.41 0-.63.273-.93.984l-6.07 14.218c-.766 1.75-1.45 1.97-2.652 2.051-.137 0-.219.082-.219.219v.52l.055.054s1.75-.055 2.46-.055c.657 0 3.637.055 3.637.055l.055-.055v-.52a.216.216 0 0 0-.219-.218l-.793-.055c-1.011-.082-1.367-.683-1.094-1.367"/></svg>
